app/images/grid__icon_engineCheck.svg

<svg width="63" height="63" viewBox="0 0 63 63" fill="none" xmlns="http://www.w3.org/2000/svg">
<path d="M39.6292 5.08057H5.08081V23.3709H39.6292V5.08057Z" fill="#C40B0B"/>
<path d="M58.9355 41.7639V31.5C58.9355 29.8193 57.5678 28.4516 55.8871 28.4516C54.2064 28.4516 52.8387 29.8193 52.8387 31.5V52.8387H54.871V57.9194C54.871 59.6 53.5033 60.9677 51.8226 60.9677H19.3065C17.6258 60.9677 16.2581 59.6 16.2581 57.9194V42.6774H28.4516V55.8871C28.4516 57.5678 29.8193 58.9355 31.5 58.9355H41.6613C43.342 58.9355 44.7097 57.5678 44.7097 55.8871V52.8387H46.7419V43.8805C47.9217 44.3012 48.7742 45.4189 48.7742 46.7419V52.8387H50.8065V46.7419C50.8065 44.289 49.0577 42.2364 46.7419 41.7639V31.5C46.7419 30.177 45.8894 29.0593 44.7097 28.6386V0H0V42.6774H14.2258V57.9194C14.2258 60.7208 16.505 63 19.3065 63H51.8226C54.624 63 56.9032 60.7208 56.9032 57.9194V52.8387H58.9355V43.8805C60.1152 44.3012 60.9677 45.4189 60.9677 46.7419V52.8387H63V46.7419C63 44.289 61.2512 42.2364 58.9355 41.7639ZM42.6774 55.8871C42.6774 56.448 42.2212 56.9032 41.6613 56.9032H31.5C30.9401 56.9032 30.4839 56.448 30.4839 55.8871V42.6774H40.6452V52.8387H42.6774V55.8871ZM43.6935 30.4839C44.2534 30.4839 44.7097 30.9391 44.7097 31.5V32.5161H42.6774V31.5C42.6774 30.9391 43.1337 30.4839 43.6935 30.4839ZM42.6774 50.8065V34.5484H44.7097V50.8065H42.6774ZM2.03226 2.03226H42.6774V28.6386C41.4977 29.0593 40.6452 30.177 40.6452 31.5V40.6452H2.03226V2.03226ZM55.8871 30.4839C56.447 30.4839 56.9032 30.9391 56.9032 31.5V32.5161H54.871V31.5C54.871 30.9391 55.3272 30.4839 55.8871 30.4839ZM54.871 50.8065V34.5484H56.9032V50.8065H54.871Z" fill="#02133C"/>
<path d="M22.3549 8.12915C11.647 8.12915 8.34657 15.5428 8.21143 15.8578L10.077 16.6616C10.1939 16.3974 13.035 10.1614 22.3549 10.1614C31.6749 10.1614 34.516 16.3974 34.6308 16.6585L36.4984 15.8588C36.3633 15.5428 33.0629 8.12915 22.3549 8.12915Z" fill="#02133C"/>
<path d="M24.0335 18.5981C23.5051 18.4111 22.9462 18.2902 22.3548 18.2902C19.5533 18.2902 17.2742 20.5694 17.2742 23.3708H19.3064C19.3064 21.6902 20.6741 20.3225 22.3548 20.3225C24.0355 20.3225 25.4032 21.6902 25.4032 23.3708H27.4355C27.4355 21.8924 26.7892 20.5704 25.7782 19.6416L29.3234 13.7329L27.5808 12.6873L24.0335 18.5981Z" fill="#02133C"/>
<path d="M22.3548 26.4194C18.9925 26.4194 16.2581 29.1538 16.2581 32.5162C16.2581 35.8786 18.9925 38.613 22.3548 38.613C25.7172 38.613 28.4516 35.8786 28.4516 32.5162C28.4516 29.1538 25.7172 26.4194 22.3548 26.4194ZM22.3548 36.5807C20.1133 36.5807 18.2903 34.7578 18.2903 32.5162C18.2903 30.2746 20.1133 28.4517 22.3548 28.4517C24.5964 28.4517 26.4193 30.2746 26.4193 32.5162C26.4193 34.7578 24.5964 36.5807 22.3548 36.5807Z" fill="#02133C"/>
<path d="M44.7097 34.5483H42.6775V36.5806H44.7097V34.5483Z" fill="#C40B0B"/>
<path d="M56.9034 34.5483H54.8711V36.5806H56.9034V34.5483Z" fill="#C40B0B"/>
</svg>

<svg width="63" height="63" fill="none" xmlns="http://www.w3.org/2000/svg"><path d="M39.63 5.08H5.08v18.29h34.55V5.08z" fill="#C40B0B"/><path d="M58.935 41.764V31.5a3.052 3.052 0 00-3.048-3.048A3.052 3.052 0 0052.84 31.5v21.339h2.032v5.08a3.052 3.052 0 01-3.048 3.049H19.306a3.052 3.052 0 01-3.048-3.049V42.677h12.194v13.21a3.052 3.052 0 003.048 3.048h10.161a3.052 3.052 0 003.049-3.048V52.84h2.032v-8.96a3.044 3.044 0 012.032 2.862v6.097h2.032v-6.097a5.09 5.09 0 00-4.064-4.978V31.5c0-1.323-.853-2.44-2.032-2.861V0H0v42.677h14.226V57.92a5.086 5.086 0 005.08 5.081h32.517c2.801 0 5.08-2.28 5.08-5.08V52.84h2.032v-8.96a3.044 3.044 0 012.033 2.862v6.097H63v-6.097a5.09 5.09 0 00-4.065-4.978zM42.677 55.887c0 .561-.456 1.016-1.016 1.016H31.5c-.56 0-1.016-.455-1.016-1.016v-13.21h10.161V52.84h2.032v3.048zm1.017-25.403c.56 0 1.016.455 1.016 1.016v1.016h-2.033V31.5c0-.56.457-1.016 1.017-1.016zm-1.017 20.322V34.549h2.033v16.258h-2.033zM2.032 2.032h40.645V28.64a3.044 3.044 0 00-2.032 2.861v9.145H2.032V2.032zm53.855 28.452c.56 0 1.016.455 1.016 1.016v1.016h-2.032V31.5c0-.56.456-1.016 1.016-1.016zm-1.016 20.322V34.549h2.032v16.258h-2.032z" fill="#02133C"/><path d="M22.355 8.13c-10.708 0-14.008 7.413-14.144 7.728l1.866.804c.117-.265 2.958-6.5 12.278-6.5s12.161 6.235 12.276 6.496l1.867-.8c-.135-.315-3.435-7.729-14.143-7.729z" fill="#02133C"/><path d="M24.034 18.598a5.007 5.007 0 00-1.68-.308 5.086 5.086 0 00-5.08 5.08h2.032a3.052 3.052 0 013.049-3.047 3.052 3.052 0 013.048 3.048h2.033c0-1.479-.647-2.8-1.658-3.73l3.545-5.908-1.742-1.046-3.547 5.911zm-1.679 7.822a6.103 6.103 0 00-6.097 6.096 6.103 6.103 0 006.097 6.097 6.103 6.103 0 006.097-6.097 6.103 6.103 0 00-6.097-6.097zm0 10.16a4.069 4.069 0 01-4.065-4.064 4.069 4.069 0 014.065-4.064 4.069 4.069 0 014.064 4.064 4.069 4.069 0 01-4.064 4.065z" fill="#02133C"/><path d="M44.71 34.548h-2.032v2.033h2.032v-2.033zm12.193 0h-2.032v2.033h2.032v-2.033z" fill="#C40B0B"/></svg>
